apps/www/public/images/realtime/example-apps/light/stock-market.svg

<svg width="361" height="210" viewBox="0 0 361 210" fill="none" xmlns="http://www.w3.org/2000/svg">
<path d="M45.75 41H314.25" stroke="#D7DBDF"/>
<path d="M45.75 73H314.25" stroke="#D7DBDF"/>
<path d="M45.75 105H314.25" stroke="#D7DBDF"/>
<path d="M45.75 137H314.25" stroke="#D7DBDF"/>
<path d="M45.75 169H314.25" stroke="#D7DBDF"/>
<path d="M96.5 132L96.5 31" stroke="#9BA1A6" stroke-width="2" stroke-miterlimit="10"/>
<path d="M98.5 54H94.5C93.3954 54 92.5 54.8954 92.5 56V103C92.5 104.105 93.3954 105 94.5 105H98.5C99.6046 105 100.5 104.105 100.5 103V56C100.5 54.8954 99.6046 54 98.5 54Z" fill="#9BA1A6"/>
<path d="M68.5 152L68.5 51" stroke="#3FCF8E" stroke-width="2" stroke-miterlimit="10"/>
<path d="M70.5 74H66.5C65.3954 74 64.5 74.8954 64.5 76V123C64.5 124.105 65.3954 125 66.5 125H70.5C71.6046 125 72.5 124.105 72.5 123V76C72.5 74.8954 71.6046 74 70.5 74Z" fill="#17C573"/>
<path d="M208.5 169L208.5 68" stroke="#3FCF8E" stroke-width="2" stroke-miterlimit="10"/>
<path d="M210.5 91H206.5C205.395 91 204.5 91.8954 204.5 93V140C204.5 141.105 205.395 142 206.5 142H210.5C211.605 142 212.5 141.105 212.5 140V93C212.5 91.8954 211.605 91 210.5 91Z" fill="#17C573"/>
<path d="M236.5 113L236.5 51" stroke="#3FCF8E" stroke-width="2" stroke-miterlimit="10"/>
<path d="M238.5 66H234.5C233.395 66 232.5 66.8954 232.5 68V100C232.5 101.105 233.395 102 234.5 102H238.5C239.605 102 240.5 101.105 240.5 100V68C240.5 66.8954 239.605 66 238.5 66Z" fill="#17C573"/>
<path d="M264.5 113L264.5 33" stroke="#3FCF8E" stroke-width="2" stroke-miterlimit="10"/>
<path d="M266.5 43H262.5C261.395 43 260.5 43.8954 260.5 45V81C260.5 82.1046 261.395 83 262.5 83H266.5C267.605 83 268.5 82.1046 268.5 81V45C268.5 43.8954 267.605 43 266.5 43Z" fill="#17C573"/>
<path d="M292.5 124L292.5 23" stroke="#3FCF8E" stroke-width="2" stroke-miterlimit="10"/>
<path d="M294.5 33H290.5C289.395 33 288.5 33.8954 288.5 35V103C288.5 104.105 289.395 105 290.5 105H294.5C295.605 105 296.5 104.105 296.5 103V35C296.5 33.8954 295.605 33 294.5 33Z" fill="#17C573"/>
<path d="M124.5 177L124.5 80" stroke="#9BA1A6" stroke-width="2" stroke-miterlimit="10"/>
<path d="M126.5 91H122.5C121.395 91 120.5 91.8954 120.5 93V140C120.5 141.105 121.395 142 122.5 142H126.5C127.605 142 128.5 141.105 128.5 140V93C128.5 91.8954 127.605 91 126.5 91Z" fill="#9BA1A6"/>
<path d="M180.5 167L180.5 91" stroke="#3FCF8E" stroke-width="2" stroke-miterlimit="10"/>
<path d="M182.5 102H178.5C177.395 102 176.5 102.895 176.5 104V151C176.5 152.105 177.395 153 178.5 153H182.5C183.605 153 184.5 152.105 184.5 151V104C184.5 102.895 183.605 102 182.5 102Z" fill="#17C573"/>
<path d="M152.5 189L152.5 124" stroke="#9BA1A6" stroke-width="2" stroke-miterlimit="10"/>
<path d="M154.5 147H150.5C149.395 147 148.5 147.895 148.5 149V172C148.5 173.105 149.395 174 150.5 174H154.5C155.605 174 156.5 173.105 156.5 172V149C156.5 147.895 155.605 147 154.5 147Z" fill="#9BA1A6"/>
</svg>

<svg xmlns="http://www.w3.org/2000/svg" width="361" height="210" fill="none" viewBox="0 0 361 210"><path stroke="#d7dbdf" d="M45.75 41h268.5M45.75 73h268.5M45.75 105h268.5M45.75 137h268.5M45.75 169h268.5"/><path stroke="#9ba1a6" stroke-miterlimit="10" stroke-width="2" d="M96.5 132V31"/><path fill="#9ba1a6" d="M98.5 54h-4a2 2 0 0 0-2 2v47a2 2 0 0 0 2 2h4a2 2 0 0 0 2-2V56a2 2 0 0 0-2-2"/><path stroke="#3fcf8e" stroke-miterlimit="10" stroke-width="2" d="M68.5 152V51"/><path fill="#17c573" d="M70.5 74h-4a2 2 0 0 0-2 2v47a2 2 0 0 0 2 2h4a2 2 0 0 0 2-2V76a2 2 0 0 0-2-2"/><path stroke="#3fcf8e" stroke-miterlimit="10" stroke-width="2" d="M208.5 169V68"/><path fill="#17c573" d="M210.5 91h-4a2 2 0 0 0-2 2v47a2 2 0 0 0 2 2h4a2 2 0 0 0 2-2V93a2 2 0 0 0-2-2"/><path stroke="#3fcf8e" stroke-miterlimit="10" stroke-width="2" d="M236.5 113V51"/><path fill="#17c573" d="M238.5 66h-4a2 2 0 0 0-2 2v32a2 2 0 0 0 2 2h4a2 2 0 0 0 2-2V68a2 2 0 0 0-2-2"/><path stroke="#3fcf8e" stroke-miterlimit="10" stroke-width="2" d="M264.5 113V33"/><path fill="#17c573" d="M266.5 43h-4a2 2 0 0 0-2 2v36a2 2 0 0 0 2 2h4a2 2 0 0 0 2-2V45a2 2 0 0 0-2-2"/><path stroke="#3fcf8e" stroke-miterlimit="10" stroke-width="2" d="M292.5 124V23"/><path fill="#17c573" d="M294.5 33h-4a2 2 0 0 0-2 2v68a2 2 0 0 0 2 2h4a2 2 0 0 0 2-2V35a2 2 0 0 0-2-2"/><path stroke="#9ba1a6" stroke-miterlimit="10" stroke-width="2" d="M124.5 177V80"/><path fill="#9ba1a6" d="M126.5 91h-4a2 2 0 0 0-2 2v47a2 2 0 0 0 2 2h4a2 2 0 0 0 2-2V93a2 2 0 0 0-2-2"/><path stroke="#3fcf8e" stroke-miterlimit="10" stroke-width="2" d="M180.5 167V91"/><path fill="#17c573" d="M182.5 102h-4a2 2 0 0 0-2 2v47a2 2 0 0 0 2 2h4a2 2 0 0 0 2-2v-47a2 2 0 0 0-2-2"/><path stroke="#9ba1a6" stroke-miterlimit="10" stroke-width="2" d="M152.5 189v-65"/><path fill="#9ba1a6" d="M154.5 147h-4a2 2 0 0 0-2 2v23a2 2 0 0 0 2 2h4a2 2 0 0 0 2-2v-23a2 2 0 0 0-2-2"/></svg>
